X: 8580
T: Croen Y Ddafad Felyn
R: barndance
M: 4/4
K: Gmajor
|:G>AB>c d2 d2|c>Bc>A d2 d2|c>BA>A B>AG>G|A>GF>G A2 A2|
G>AB>c d2 d2|c>Bc>A d2 d2|c>BA>A B>AG>G|A>Ad>d G2 G2:|
|:g>f (3efg f2 d2|c>B (3ABc B2 G2|e>dc>e d2 B2|G>AB>G A2 D2|
[1 g2 e>g f2 f2|e2 c>e d2 d2|c2 (3ABc B>AG>B|(3ABA d>F G4:|
[2 G>AB>c d2 d2|c>Bc>A d2 d2|c>BA>A B>A G2|A>Ad>d G2||
|:(3DEF|G>AB>c d2 D2|c>Bc>A d2 d2|c>BA>d B>A G2|A>GF>G A2 (3DEF|
G2 (3ABc d>^cd>B|c2 (3ABc d2 D2|c>B (3ABc B>A (3GAB|A2 d2 G2:|
|:B>c|d>c (3Bcd g2 d2|d>cB>d g2 g2|d>cB>d c>B (3ABc|
[1 B>AG>B A2 (3ABc|d2 B>d g2 (3Bcd|(3ded (3Bcd g4|c2 (3ABc B2 (3GAB|A>Fd>F G2:|
[2 B2 G>B A2 D2|G>AB>c d2 d>G|c>BA>c d2 d>B|c2 A2 B2 G>G|A>Ad>d G2||

